X: 13702
T: For The Love Of Music
R: slip jig
M: 9/8
K: Gmajor
|:GED DEG A2B|AGG GBd edd|GED DEG A2c|Bee BAB GEE:|
ged e/f/gB GB/c/d|ged egb a2f|ged e/f/gB ABd|edB dBG ABd|
ged e/f/gB GB/c/d|ged egb a2a|bee e/f/ge a2g|edB dBG ABA||

